X: 11509
T: Eddie Kelly's
R: jig
M: 6/8
K: Dmixolydian
AFD =c3|Ade fge|dcA GFG|AdB =cAG|
AFD =c3|Ade fge|dcA GEA|DED D3|
AFD =c3|Ade fge|dcA GFG|AdB =cAG|
AFD =c3|Ade fge|dcA GEA|DED DFA||
daf g2 a|gfd =cAG|daf gfd|cde gfg|
agf g2 a|fed cAG|AdB =cAG|EFD D3|
daf g2 a|gfd =cAG|daf gfd|cde gfg|
agf g2 a|fed cAG|AdB =cAG|EFD D3||

